assets/volcengine/original.svg

<svg viewBox="0 0 24 24" xmlns="http://www.w3.org/2000/svg"><path d="m19.44 10.153-2.936 11.586a.215.215 0 0 0 .214.261h5.87a.215.215 0 0 0 .214-.261l-2.95-11.586a.214.214 0 0 0 -.412 0m-16.16 2.625-2.275 8.96a.214.214 0 0 0 .215.262h4.532a.21.21 0 0 0 .214-.165.2.2 0 0 0 0-.097l-2.276-8.96a.214.214 0 0 0 -.41 0" fill="#00e5e5"/><path d="m7.29 5.359-4.142 16.379a.215.215 0 0 0 .203.261h8.29a.214.214 0 0 0 .215-.261l-4.156-16.38a.214.214 0 0 0 -.41 0z" fill="#006eff"/><path d="m14.44.15a.214.214 0 0 0 -.41 0l-5.664 21.589a.214.214 0 0 0 .214.261h11.32a.22.22 0 0 0 .171-.078.21.21 0 0 0 .044-.183z" fill="#006eff"/><path d="m10.278 7.741-3.593 13.995a.214.214 0 0 0 .214.264h7.17a.215.215 0 0 0 .214-.264l-3.595-13.995a.214.214 0 0 0 -.41 0" fill="#00e5e5"/></svg>

<svg xmlns="http://www.w3.org/2000/svg" viewBox="0 0 24 24"><path fill="#00e5e5" d="m19.44 10.153-2.936 11.586a.215.215 0 0 0 .214.261h5.87a.215.215 0 0 0 .214-.261l-2.95-11.586a.214.214 0 0 0-.412 0M3.28 12.778l-2.275 8.96A.214.214 0 0 0 1.22 22h4.532a.21.21 0 0 0 .214-.165.2.2 0 0 0 0-.097l-2.276-8.96a.214.214 0 0 0-.41 0"/><path fill="#006eff" d="M7.29 5.359 3.148 21.738a.215.215 0 0 0 .203.261h8.29a.214.214 0 0 0 .215-.261L7.7 5.358a.214.214 0 0 0-.41 0z"/><path fill="#006eff" d="M14.44.15a.214.214 0 0 0-.41 0L8.366 21.739A.214.214 0 0 0 8.58 22H19.9a.22.22 0 0 0 .171-.078.21.21 0 0 0 .044-.183z"/><path fill="#00e5e5" d="M10.278 7.741 6.685 21.736a.214.214 0 0 0 .214.264h7.17a.215.215 0 0 0 .214-.264L10.688 7.741a.214.214 0 0 0-.41 0"/></svg>
